blockchains/dash/logo.svg

<svg fill="none" height="250" viewBox="0 0 250 250" width="250" xmlns="http://www.w3.org/2000/svg" xmlns:xlink="http://www.w3.org/1999/xlink"><clipPath id="a"><path d="m0 0h250v250h-250z"/></clipPath><clipPath id="b"><path d="m0 0h250v250h-250z"/></clipPath><g clip-path="url(#a)"><g clip-path="url(#b)"><path d="m125 249.867c68.962 0 124.867-55.905 124.867-124.867 0-68.9624-55.905-124.867432-124.867-124.867432-68.9624 0-124.867432 55.905032-124.867432 124.867432 0 68.962 55.905032 124.867 124.867432 124.867z" fill="#008de4"/><g fill="#fff"><path d="m151.723 55.0637h-62.7515l-5.1962 29.0562 56.6277.0796c27.89 0 36.135 10.1272 35.896 26.9085-.132 8.616-3.844 23.171-5.461 27.89-4.295 12.566-13.123 26.935-46.209 26.882l-55.0372-.026-5.2227 29.082h62.5929c22.084 0 31.469-2.571 41.41-7.158 22.058-10.18 35.181-31.945 40.43-60.339 7.821-42.2851-1.935-72.3753-57.079-72.3753"/><path d="m61.9034 110.419c-16.4369 0-18.7964 10.71-20.334 17.179-2.0414 8.484-2.7042 11.904-2.7042 11.904h64.2368c16.437 0 18.796-10.711 20.334-17.18 2.041-8.483 2.704-11.903 2.704-11.903z"/></g></g></g></svg>

<svg width="250" height="250" viewBox="0 0 250 250" fill="none" xmlns="http://www.w3.org/2000/svg">
<g clip-path="url(#clip0_9_667)">
<g clip-path="url(#clip1_9_667)">
<path d="M125 249.867C193.962 249.867 249.867 193.962 249.867 125C249.867 56.0376 193.962 0.132568 125 0.132568C56.0376 0.132568 0.132568 56.0376 0.132568 125C0.132568 193.962 56.0376 249.867 125 249.867Z" fill="#008DE4"/>
<path d="M151.723 55.0637H88.9715L83.7753 84.1199L140.403 84.1995C168.293 84.1995 176.538 94.3267 176.299 111.108C176.167 119.724 172.455 134.279 170.838 138.998C166.543 151.564 157.715 165.933 124.629 165.88L69.5918 165.854L64.3691 194.936H126.962C149.046 194.936 158.431 192.365 168.372 187.778C190.43 177.598 203.553 155.833 208.802 127.439C216.623 85.1539 206.867 55.0637 151.723 55.0637" fill="white"/>
<path d="M61.9034 110.419C45.4665 110.419 43.107 121.129 41.5694 127.598C39.528 136.082 38.8652 139.502 38.8652 139.502H103.102C119.539 139.502 121.898 128.791 123.436 122.322C125.477 113.839 126.14 110.419 126.14 110.419H61.9034Z" fill="white"/>
</g>
</g>
<defs>
<clipPath id="clip0_9_667">
<rect width="250" height="250" fill="white"/>
</clipPath>
<clipPath id="clip1_9_667">
<rect width="250" height="250" fill="white"/>
</clipPath>
</defs>
</svg>
